Newaita-dark/apps/48/telegram.svg

<svg height="48pt" viewBox="0 0 48 48" width="48pt" xmlns="http://www.w3.org/2000/svg" xmlns:xlink="http://www.w3.org/1999/xlink"><linearGradient id="a"><stop offset="0" stop-opacity=".313725"/><stop offset=".222222" stop-opacity=".27451"/><stop offset="1" stop-opacity="0"/></linearGradient><radialGradient id="b" cx="450.908936" cy="189.579361" gradientTransform="matrix(.0000002 -.117199 -.158507 -.00000015 53.486129 95.392999)" gradientUnits="userSpaceOnUse" r="21.166656" xlink:href="#a"/><radialGradient id="c" cx="450.908936" cy="189.579361" gradientTransform="matrix(-.0000002 .117199 .158507 .00000015 -5.856576 -11.291218)" gradientUnits="userSpaceOnUse" r="21.166656" xlink:href="#a"/><radialGradient id="d" cx="450.908936" cy="189.579361" gradientTransform="matrix(-.0000002 -.117199 .158507 -.00000015 -5.856576 95.392999)" gradientUnits="userSpaceOnUse" r="21.166656" xlink:href="#a"/><radialGradient id="e" cx="450.908936" cy="189.579361" gradientTransform="matrix(.0000002 .117199 -.158507 .00000015 53.486127 -11.291219)" gradientUnits="userSpaceOnUse" r="21.166656" xlink:href="#a"/><linearGradient id="f" gradientUnits="userSpaceOnUse" x1="23.814786" x2="23.814786" y1="42.0509015" y2="4.34415649995"><stop offset="0" stop-color="#64b5f6"/><stop offset="1" stop-color="#90caf9"/></linearGradient><path d="m23.808594 42.050781h2.984375v-1.984375h-2.984375zm0 0" fill="url(#b)"/><path d="m23.820312 42.050781h-2.980468v1.984375h2.980468zm0 0" fill="url(#c)"/><path d="m23.820312 42.050781h-2.980468v-1.984375h2.980468zm0 0" fill="url(#d)"/><path d="m23.808594 42.050781h2.984375v1.984375h-2.984375zm0 0" fill="url(#e)"/><path d="m23.808594 4.34375c-.367188.003906-.707032.210938-.875.539062l-15.875 30.757813c-.3125.609375.0625 1.339844.738281 1.4375l13.453125 1.921875 1.738281 2.609375c.394531.589844 1.257813.589844 1.652344 0l1.738281-2.609375 13.453125-1.921875c.675781-.097656 1.054688-.828125.742188-1.4375l-15.878907-30.757813c-.171874-.332031-.511718-.539062-.886718-.539062zm0 0" fill="url(#f)"/><path d="m23.808594 4.34375c-.367188.003906-.707032.210938-.875.539062l-15.875 30.757813c-.164063.320313-.140625.671875.019531.949219l15.855469-30.714844c.167968-.328125.507812-.535156.875-.539062.375 0 .714844.207031.886718.539062l15.855469 30.714844c.160157-.277344.1875-.628906.023438-.949219l-15.878907-30.757813c-.171874-.332031-.511718-.539062-.886718-.539062zm0 0" fill="#fff" fill-opacity=".235294"/><path d="m23.816406 4.34375-2.539062 34.699219 1.710937 2.566406c.199219.292969.511719.441406.828125.441406zm0 0" fill="#01579b" fill-opacity=".235294"/><path d="m23.816406 4.34375 2.535156 34.699219-1.710937 2.566406c-.195313.292969-.511719.441406-.824219.441406zm0 0" fill="#01579b" fill-opacity=".117647"/><path d="m23.285156 4.324219-.011718.183593c.121093-.082031.265624-.136718.414062-.15625zm.488282 1.011719c-.214844.011718-.417969.089843-.582032.21875l-2.46875 32.699218.527344.074219.027344.042969zm0 0" fill="#fff" fill-opacity=".235294"/><path d="m24.25 4.324219-.347656.023437c.128906.011719.25.046875.359375.105469zm-.441406 1.011719c-.015625 0-.03125 0-.042969.003906l2.503906 33.15625.109375-.167969.4375-.0625-2.476562-32.777344c-.15625-.097656-.339844-.152343-.53125-.152343zm0 0" fill="#fff" fill-opacity=".235294"/><path d="m23.808594 4.203125c-.421875.003906-.808594.238281-1 .613281l-15.875 30.761719c-.355469.6875.078125 1.53125.84375 1.640625l13.390625 1.914062 1.703125 2.554688c.445312.667969 1.441406.667969 1.886718 0l1.703126-2.554688 13.390624-1.914062c.765626-.109375 1.203126-.953125.847657-1.640625l-15.878907-30.761719c-.195312-.378906-.585937-.613281-1.011718-.613281zm0 .28125c.320312 0 .617187.175781.761718.460937l15.878907 30.761719c.269531.523438-.054688 1.148438-.636719 1.234375l-13.453125 1.921875c-.039063.003907-.074219.027344-.097656.058594l-1.738281 2.609375c-.339844.507812-1.078126.507812-1.417969 0l-1.738281-2.609375c-.019532-.03125-.054688-.054687-.097657-.058594l-13.453125-1.921875c-.582031-.085937-.90625-.710937-.632812-1.234375l15.875-30.761719c.144531-.28125.433594-.457031.75-.460937zm0 0" fill="#212121"/><path d="m7.003906 35.761719c-.210937.578125.164063 1.226562.792969 1.316406l13.453125 1.921875 1.738281 2.609375c.394531.589844 1.257813.589844 1.652344 0l1.738281-2.609375 13.453125-1.921875c.632813-.089844 1.003907-.738281.792969-1.316406-.117188.328125-.40625.589843-.792969.644531l-13.453125 1.921875-1.738281 2.609375c-.394531.589844-1.257813.589844-1.652344 0l-1.738281-2.609375-13.453125-1.921875c-.382813-.054688-.671875-.316406-.792969-.644531zm0 0" fill-opacity=".235294"/></svg>

<?xml version="1.0" encoding="UTF-8"?>
<svg xmlns="http://www.w3.org/2000/svg" xmlns:xlink="http://www.w3.org/1999/xlink" width="48pt" height="48pt" viewBox="0 0 48 48" version="1.1">
<defs>
<radialGradient id="radial0" gradientUnits="userSpaceOnUse" cx="450.908936" cy="189.579361" fx="450.908936" fy="189.579361" r="21.166656" gradientTransform="matrix(0.000000196299,-0.117199,-0.158507,-0.000000152308,53.486129,95.392999)">
<stop offset="0" style="stop-color:rgb(0%,0%,0%);stop-opacity:0.313725;"/>
<stop offset="0.222222" style="stop-color:rgb(0%,0%,0%);stop-opacity:0.27451;"/>
<stop offset="1" style="stop-color:rgb(0%,0%,0%);stop-opacity:0;"/>
</radialGradient>
<radialGradient id="radial1" gradientUnits="userSpaceOnUse" cx="450.908936" cy="189.579361" fx="450.908936" fy="189.579361" r="21.166656" gradientTransform="matrix(-0.000000196299,0.117199,0.158507,0.000000152308,-5.856576,-11.291218)">
<stop offset="0" style="stop-color:rgb(0%,0%,0%);stop-opacity:0.313725;"/>
<stop offset="0.222222" style="stop-color:rgb(0%,0%,0%);stop-opacity:0.27451;"/>
<stop offset="1" style="stop-color:rgb(0%,0%,0%);stop-opacity:0;"/>
</radialGradient>
<radialGradient id="radial2" gradientUnits="userSpaceOnUse" cx="450.908936" cy="189.579361" fx="450.908936" fy="189.579361" r="21.166656" gradientTransform="matrix(-0.000000196299,-0.117199,0.158507,-0.000000152308,-5.856576,95.392999)">
<stop offset="0" style="stop-color:rgb(0%,0%,0%);stop-opacity:0.313725;"/>
<stop offset="0.222222" style="stop-color:rgb(0%,0%,0%);stop-opacity:0.27451;"/>
<stop offset="1" style="stop-color:rgb(0%,0%,0%);stop-opacity:0;"/>
</radialGradient>
<radialGradient id="radial3" gradientUnits="userSpaceOnUse" cx="450.908936" cy="189.579361" fx="450.908936" fy="189.579361" r="21.166656" gradientTransform="matrix(0.000000196299,0.117199,-0.158507,0.000000152308,53.486127,-11.291219)">
<stop offset="0" style="stop-color:rgb(0%,0%,0%);stop-opacity:0.313725;"/>
<stop offset="0.222222" style="stop-color:rgb(0%,0%,0%);stop-opacity:0.27451;"/>
<stop offset="1" style="stop-color:rgb(0%,0%,0%);stop-opacity:0;"/>
</radialGradient>
<linearGradient id="linear0" gradientUnits="userSpaceOnUse" x1="254" y1="233.5" x2="254" y2="-168.666672" gradientTransform="matrix(0.093759,0,0,0.093759,0,20.158175)">
<stop offset="0" style="stop-color:rgb(39.215686%,70.980392%,96.470588%);stop-opacity:1;"/>
<stop offset="1" style="stop-color:rgb(56.470588%,79.215686%,97.647059%);stop-opacity:1;"/>
</linearGradient>
</defs>
<g id="surface1">
<path style=" stroke:none;fill-rule:nonzero;fill:url(#radial0);" d="M 23.808594 42.050781 L 26.792969 42.050781 L 26.792969 40.066406 L 23.808594 40.066406 Z M 23.808594 42.050781 "/>
<path style=" stroke:none;fill-rule:nonzero;fill:url(#radial1);" d="M 23.820312 42.050781 L 20.839844 42.050781 L 20.839844 44.035156 L 23.820312 44.035156 Z M 23.820312 42.050781 "/>
<path style=" stroke:none;fill-rule:nonzero;fill:url(#radial2);" d="M 23.820312 42.050781 L 20.839844 42.050781 L 20.839844 40.066406 L 23.820312 40.066406 Z M 23.820312 42.050781 "/>
<path style=" stroke:none;fill-rule:nonzero;fill:url(#radial3);" d="M 23.808594 42.050781 L 26.792969 42.050781 L 26.792969 44.035156 L 23.808594 44.035156 Z M 23.808594 42.050781 "/>
<path style=" stroke:none;fill-rule:nonzero;fill:url(#linear0);" d="M 23.808594 4.34375 C 23.441406 4.347656 23.101562 4.554688 22.933594 4.882812 L 7.058594 35.640625 C 6.746094 36.25 7.121094 36.980469 7.796875 37.078125 L 21.25 39 L 22.988281 41.609375 C 23.382812 42.199219 24.246094 42.199219 24.640625 41.609375 L 26.378906 39 L 39.832031 37.078125 C 40.507812 36.980469 40.886719 36.25 40.574219 35.640625 L 24.695312 4.882812 C 24.523438 4.550781 24.183594 4.34375 23.808594 4.34375 Z M 23.808594 4.34375 "/>
<path style=" stroke:none;fill-rule:nonzero;fill:rgb(100%,100%,100%);fill-opacity:0.235294;" d="M 23.808594 4.34375 C 23.441406 4.347656 23.101562 4.554688 22.933594 4.882812 L 7.058594 35.640625 C 6.894531 35.960938 6.917969 36.3125 7.078125 36.589844 L 22.933594 5.875 C 23.101562 5.546875 23.441406 5.339844 23.808594 5.335938 C 24.183594 5.335938 24.523438 5.542969 24.695312 5.875 L 40.550781 36.589844 C 40.710938 36.3125 40.738281 35.960938 40.574219 35.640625 L 24.695312 4.882812 C 24.523438 4.550781 24.183594 4.34375 23.808594 4.34375 Z M 23.808594 4.34375 "/>
<path style=" stroke:none;fill-rule:nonzero;fill:rgb(0.392157%,34.117648%,60.784316%);fill-opacity:0.235294;" d="M 23.816406 4.34375 L 21.277344 39.042969 L 22.988281 41.609375 C 23.1875 41.902344 23.5 42.050781 23.816406 42.050781 Z M 23.816406 4.34375 "/>
<path style=" stroke:none;fill-rule:nonzero;fill:rgb(0.392157%,34.117648%,60.784316%);fill-opacity:0.117647;" d="M 23.816406 4.34375 L 26.351562 39.042969 L 24.640625 41.609375 C 24.445312 41.902344 24.128906 42.050781 23.816406 42.050781 Z M 23.816406 4.34375 "/>
<path style=" stroke:none;fill-rule:nonzero;fill:rgb(100%,100%,100%);fill-opacity:0.235294;" d="M 23.285156 4.324219 L 23.273438 4.507812 C 23.394531 4.425781 23.539062 4.371094 23.6875 4.351562 Z M 23.773438 5.335938 C 23.558594 5.347656 23.355469 5.425781 23.191406 5.554688 L 20.722656 38.253906 L 21.25 38.328125 L 21.277344 38.371094 Z M 23.773438 5.335938 "/>
<path style=" stroke:none;fill-rule:nonzero;fill:rgb(100%,100%,100%);fill-opacity:0.235294;" d="M 24.25 4.324219 L 23.902344 4.347656 C 24.03125 4.359375 24.152344 4.394531 24.261719 4.453125 Z M 23.808594 5.335938 C 23.792969 5.335938 23.777344 5.335938 23.765625 5.339844 L 26.269531 38.496094 L 26.378906 38.328125 L 26.816406 38.265625 L 24.339844 5.488281 C 24.183594 5.390625 24 5.335938 23.808594 5.335938 Z M 23.808594 5.335938 "/>
<path style=" stroke:none;fill-rule:nonzero;fill:rgb(12.941177%,12.941177%,12.941177%);fill-opacity:1;" d="M 23.808594 4.203125 C 23.386719 4.207031 23 4.441406 22.808594 4.816406 L 6.933594 35.578125 C 6.578125 36.265625 7.011719 37.109375 7.777344 37.21875 L 21.167969 39.132812 L 22.871094 41.6875 C 23.316406 42.355469 24.3125 42.355469 24.757812 41.6875 L 26.460938 39.132812 L 39.851562 37.21875 C 40.617188 37.109375 41.054688 36.265625 40.699219 35.578125 L 24.820312 4.816406 C 24.625 4.4375 24.234375 4.203125 23.808594 4.203125 Z M 23.808594 4.484375 C 24.128906 4.484375 24.425781 4.660156 24.570312 4.945312 L 40.449219 35.707031 C 40.71875 36.230469 40.394531 36.855469 39.8125 36.941406 L 26.359375 38.863281 C 26.320312 38.867188 26.285156 38.890625 26.261719 38.921875 L 24.523438 41.53125 C 24.183594 42.039062 23.445312 42.039062 23.105469 41.53125 L 21.367188 38.921875 C 21.347656 38.890625 21.3125 38.867188 21.269531 38.863281 L 7.816406 36.941406 C 7.234375 36.855469 6.910156 36.230469 7.183594 35.707031 L 23.058594 4.945312 C 23.203125 4.664062 23.492188 4.488281 23.808594 4.484375 Z M 23.808594 4.484375 "/>
<path style=" stroke:none;fill-rule:nonzero;fill:rgb(0%,0%,0%);fill-opacity:0.235294;" d="M 7.003906 35.761719 C 6.792969 36.339844 7.167969 36.988281 7.796875 37.078125 L 21.25 39 L 22.988281 41.609375 C 23.382812 42.199219 24.246094 42.199219 24.640625 41.609375 L 26.378906 39 L 39.832031 37.078125 C 40.464844 36.988281 40.835938 36.339844 40.625 35.761719 C 40.507812 36.089844 40.21875 36.351562 39.832031 36.40625 L 26.378906 38.328125 L 24.640625 40.9375 C 24.246094 41.527344 23.382812 41.527344 22.988281 40.9375 L 21.25 38.328125 L 7.796875 36.40625 C 7.414062 36.351562 7.125 36.089844 7.003906 35.761719 Z M 7.003906 35.761719 "/>
</g>
</svg>
